X: 36872
T: Shlide Aside
R: slide
M: 12/8
K: Dmajor
|:A|F2 E EDE F2 D D2 E|F2 E D2 A d2 B B2 A|
F3 EDE F2 D D3|F2 D d2 A B3- B2:|
|:A|F2 d- d2 e f2 e efe|ded cBA d2 B B2 A|
F3 dcd f2 e edc|1 d2 d cBA B2 c cB:|2 dcd cBA B3 B2||

